images/aMKR.svg

<svg height="250" viewBox="0 0 250 250" width="250" xmlns="http://www.w3.org/2000/svg" xmlns:xlink="http://www.w3.org/1999/xlink"><linearGradient id="a" gradientUnits="userSpaceOnUse" x1="210.75" x2="51.5" y1="33.75" y2="221.5"><stop offset="0" stop-color="#b6509e"/><stop offset="1" stop-color="#2ebac6"/></linearGradient><linearGradient id="b" gradientUnits="userSpaceOnUse" x1="125" x2="125" y1="220.980469" y2="29.019531"><stop offset="0" stop-color="#4fa89b"/><stop offset="1" stop-color="#6acebb"/></linearGradient><path d="m250 125c0 69.035156-55.964844 125-125 125s-125-55.964844-125-125 55.964844-125 125-125 125 55.964844 125 125zm0 0" fill="#fff"/><path d="m125 250c-8.460938.003906-16.902344-.847656-25.195312-2.539062-15.988282-3.273438-31.175782-9.667969-44.699219-18.808594-20.09375-13.566406-35.828125-32.671875-45.285157-54.996094-3.195312-7.5625-5.632812-15.417969-7.28125-23.460938-3.386718-16.625-3.386718-33.761718 0-50.382812 3.273438-15.988281 9.664063-31.179688 18.808594-44.699219 13.566406-20.097656 32.671875-35.828125 54.996094-45.289062 7.5625-3.199219 15.417969-5.636719 23.460938-7.285157 16.625-3.386718 33.761718-3.386718 50.382812 0 15.988281 3.273438 31.179688 9.664063 44.699219 18.808594 20.097656 13.566406 35.828125 32.671875 45.289062 54.996094 3.195313 7.5625 5.636719 15.417969 7.285157 23.460938 3.386718 16.625 3.386718 33.761718 0 50.382812-3.273438 15.992188-9.664063 31.179688-18.808594 44.699219-13.566406 20.09375-32.671875 35.828125-54.996094 45.285156-7.5625 3.199219-15.417969 5.640625-23.460938 7.289063-8.292968 1.691406-16.734374 2.542968-25.195312 2.539062zm0-236.609375c-7.554688 0-15.089844.757813-22.492188 2.269531-14.277343 2.921875-27.839843 8.628906-39.910156 16.792969-17.941406 12.113281-31.984375 29.171875-40.429687 49.105469-2.855469 6.75-5.03125 13.769531-6.503907 20.949218-3.023437 14.839844-3.023437 30.140626 0 44.984376 2.925782 14.277343 8.632813 27.835937 16.796876 39.90625 12.113281 17.945312 29.171874 31.992187 49.105468 40.4375 6.75 2.855468 13.769532 5.03125 20.949219 6.503906 14.84375 3.023437 30.144531 3.023437 44.984375 0 14.277344-2.925782 27.839844-8.632813 39.910156-16.796875 17.9375-12.113281 31.976563-29.171875 40.421875-49.101563 2.855469-6.75 5.03125-13.769531 6.503907-20.949218 3.023437-14.84375 3.023437-30.144532 0-44.984376-2.925782-14.277343-8.632813-27.835937-16.796876-39.90625-12.113281-17.941406-29.167968-31.988281-49.097656-40.433593-6.75-2.855469-13.769531-5.03125-20.949218-6.503907-7.402344-1.511718-14.9375-2.273437-22.492188-2.273437zm0 0" fill="url(#a)"/><path d="m220.980469 125c0 53.007812-42.972657 95.980469-95.980469 95.980469-53.011719 0-95.980469-42.972657-95.980469-95.980469 0-53.011719 42.96875-95.980469 95.980469-95.980469 53.007812 0 95.980469 42.96875 95.980469 95.980469zm0 0" fill="url(#b)"/><path d="m77.832031 153.75v-45.105469l34.207031 25.742188v19.359375h8.730469v-21.175782c-.003906-1.59375-.757812-3.097656-2.03125-4.054687l-41.480469-31.234375c-1.546874-1.148438-3.609374-1.328125-5.335937-.46875-1.722656.863281-2.816406 2.621094-2.824219 4.550781v52.386719zm94.597657 0v-45.105469l-34.203126 25.742188v19.359375h-8.730468v-21.175782c0-1.59375.753906-3.097656 2.027344-4.054687l41.480468-31.21875c1.546875-1.148437 3.605469-1.332031 5.328125-.472656 1.722657.859375 2.816407 2.613281 2.832031 4.539062v52.386719zm0 0" fill="#fff"/></svg>

<svg xmlns="http://www.w3.org/2000/svg" xmlns:xlink="http://www.w3.org/1999/xlink" width="250px" height="250px" viewBox="0 0 250 250" version="1.1">
<defs>
<linearGradient id="linear0" gradientUnits="userSpaceOnUse" x1="0.843" y1="0.135" x2="0.206" y2="0.886" gradientTransform="matrix(250,0,0,250,0,0)">
<stop offset="0" style="stop-color:rgb(71.372551%,31.37255%,61.960787%);stop-opacity:1;"/>
<stop offset="1" style="stop-color:rgb(18.039216%,72.941178%,77.64706%);stop-opacity:1;"/>
</linearGradient>
<linearGradient id="linear1" gradientUnits="userSpaceOnUse" x1="0.5" y1="1" x2="0.5" y2="0" gradientTransform="matrix(191.960938,0,0,191.960938,29.019531,29.019531)">
<stop offset="0" style="stop-color:rgb(30.980393%,65.882355%,60.784316%);stop-opacity:1;"/>
<stop offset="1" style="stop-color:rgb(41.568628%,80.784315%,73.333335%);stop-opacity:1;"/>
</linearGradient>
</defs>
<g id="surface1">
<path style=" stroke:none;fill-rule:nonzero;fill:rgb(100%,100%,100%);fill-opacity:1;" d="M 250 125 C 250 194.035156 194.035156 250 125 250 C 55.964844 250 0 194.035156 0 125 C 0 55.964844 55.964844 0 125 0 C 194.035156 0 250 55.964844 250 125 Z M 250 125 "/>
<path style=" stroke:none;fill-rule:nonzero;fill:url(#linear0);" d="M 125 250 C 116.539062 250.003906 108.097656 249.152344 99.804688 247.460938 C 83.816406 244.1875 68.628906 237.792969 55.105469 228.652344 C 35.011719 215.085938 19.277344 195.980469 9.820312 173.65625 C 6.625 166.09375 4.1875 158.238281 2.539062 150.195312 C -0.847656 133.570312 -0.847656 116.433594 2.539062 99.8125 C 5.8125 83.824219 12.203125 68.632812 21.347656 55.113281 C 34.914062 35.015625 54.019531 19.285156 76.34375 9.824219 C 83.90625 6.625 91.761719 4.1875 99.804688 2.539062 C 116.429688 -0.847656 133.566406 -0.847656 150.1875 2.539062 C 166.175781 5.8125 181.367188 12.203125 194.886719 21.347656 C 214.984375 34.914062 230.714844 54.019531 240.175781 76.34375 C 243.371094 83.90625 245.8125 91.761719 247.460938 99.804688 C 250.847656 116.429688 250.847656 133.566406 247.460938 150.1875 C 244.1875 166.179688 237.796875 181.367188 228.652344 194.886719 C 215.085938 214.980469 195.980469 230.714844 173.65625 240.171875 C 166.09375 243.371094 158.238281 245.8125 150.195312 247.460938 C 141.902344 249.152344 133.460938 250.003906 125 250 Z M 125 13.390625 C 117.445312 13.390625 109.910156 14.148438 102.507812 15.660156 C 88.230469 18.582031 74.667969 24.289062 62.597656 32.453125 C 44.65625 44.566406 30.613281 61.625 22.167969 81.558594 C 19.3125 88.308594 17.136719 95.328125 15.664062 102.507812 C 12.640625 117.347656 12.640625 132.648438 15.664062 147.492188 C 18.589844 161.769531 24.296875 175.328125 32.460938 187.398438 C 44.574219 205.34375 61.632812 219.390625 81.566406 227.835938 C 88.316406 230.691406 95.335938 232.867188 102.515625 234.339844 C 117.359375 237.363281 132.660156 237.363281 147.5 234.339844 C 161.777344 231.414062 175.339844 225.707031 187.410156 217.542969 C 205.347656 205.429688 219.386719 188.371094 227.832031 168.441406 C 230.6875 161.691406 232.863281 154.671875 234.335938 147.492188 C 237.359375 132.648438 237.359375 117.347656 234.335938 102.507812 C 231.410156 88.230469 225.703125 74.671875 217.539062 62.601562 C 205.425781 44.660156 188.371094 30.613281 168.441406 22.167969 C 161.691406 19.3125 154.671875 17.136719 147.492188 15.664062 C 140.089844 14.152344 132.554688 13.390625 125 13.390625 Z M 125 13.390625 "/>
<path style=" stroke:none;fill-rule:nonzero;fill:url(#linear1);" d="M 220.980469 125 C 220.980469 178.007812 178.007812 220.980469 125 220.980469 C 71.988281 220.980469 29.019531 178.007812 29.019531 125 C 29.019531 71.988281 71.988281 29.019531 125 29.019531 C 178.007812 29.019531 220.980469 71.988281 220.980469 125 Z M 220.980469 125 "/>
<path style=" stroke:none;fill-rule:nonzero;fill:rgb(100%,100%,100%);fill-opacity:1;" d="M 77.832031 153.75 L 77.832031 108.644531 L 112.039062 134.386719 L 112.039062 153.746094 L 120.769531 153.746094 L 120.769531 132.570312 C 120.765625 130.976562 120.011719 129.472656 118.738281 128.515625 L 77.257812 97.28125 C 75.710938 96.132812 73.648438 95.953125 71.921875 96.8125 C 70.199219 97.675781 69.105469 99.433594 69.097656 101.363281 L 69.097656 153.75 Z M 172.429688 153.75 L 172.429688 108.644531 L 138.226562 134.386719 L 138.226562 153.746094 L 129.496094 153.746094 L 129.496094 132.570312 C 129.496094 130.976562 130.25 129.472656 131.523438 128.515625 L 173.003906 97.296875 C 174.550781 96.148438 176.609375 95.964844 178.332031 96.824219 C 180.054688 97.683594 181.148438 99.4375 181.164062 101.363281 L 181.164062 153.75 Z M 172.429688 153.75 "/>
</g>
</svg>
